picto/cycling-prohibited-right-framed.svg

<svg class="color-immutable" width="30" height="30" viewBox="0 0 30 30" fill="none" xmlns="http://www.w3.org/2000/svg"><path d="M29.9999 0H0V29.9999H29.9999V0Z" fill="#2D327D"/><path d="M25.4999 2.99999C26.3249 2.99999 26.9999 3.67499 26.9999 4.49999V25.4999C26.9999 26.3249 26.3249 26.9999 25.4999 26.9999H4.49999C3.67499 26.9999 2.99999 26.3249 2.99999 25.4999V4.49999C2.99999 3.67499 3.67499 2.99999 4.49999 2.99999H25.4999ZM25.4999 2.62499H4.49999C3.46612 2.62499 2.62499 3.46612 2.62499 4.49999V25.4999C2.62499 26.5338 3.46612 27.3749 4.49999 27.3749H25.4999C26.5338 27.3749 27.3749 26.5338 27.3749 25.4999V4.49999C27.3749 3.46612 26.5338 2.62499 25.4999 2.62499Z" fill="white"/><path d="M13.0152 14.7954L11.2046 15.4287C11.1656 15.4435 11.1227 15.45 11.0809 15.45C10.9556 15.45 10.8395 15.3877 10.7698 15.2838L10.3629 14.6803C10.3296 14.6302 10.3127 14.5717 10.3127 14.5131C10.3127 14.347 10.4466 14.2124 10.612 14.2124H12.9157C13.0821 14.2124 13.2167 14.347 13.2167 14.5131C13.2167 14.6405 13.135 14.7537 13.0152 14.7954Z" fill="white"/><path d="M19.3507 14.8125H16.7251V14.2125H19.3507C19.5162 14.2125 19.65 14.3469 19.65 14.5128C19.65 14.678 19.5162 14.8125 19.3507 14.8125Z" fill="white"/><path d="M19.3504 15.787H18.9751C18.8096 15.787 18.6748 15.6525 18.6748 15.4874C18.6748 15.3215 18.8096 15.187 18.9751 15.187H19.3504C19.5158 15.187 19.6497 15.3215 19.6497 15.4874C19.6498 15.6525 19.5158 15.787 19.3504 15.787Z" fill="white"/><path d="M24.0504 22.9732L23.4049 22.3277C23.7808 21.7513 24.0001 21.0636 24.0001 20.325C24.0001 18.2955 22.354 16.6493 20.3252 16.6493C19.7408 16.6493 19.1648 16.7886 18.6455 17.0558L17.9255 15.9H16.9771L6.70834 5.63129L5.64769 6.69186L14.8558 15.9H12.0758L11.3557 17.0558C10.8363 16.7886 10.2597 16.6493 9.67518 16.6493C7.64636 16.6493 6.00004 18.2954 6.00004 20.325C6.00004 22.3527 7.64636 23.9999 9.67518 23.9999C11.574 23.9999 13.1607 22.5533 13.3343 20.6621H14.1167C14.2774 21.0047 14.6222 21.2247 15.0011 21.2247C15.538 21.2247 15.9754 20.7874 15.9754 20.2499C15.9754 20.0308 15.902 19.8191 15.7664 19.6474L16.907 17.9514L17.2573 18.3018C16.8665 18.8948 16.6508 19.5961 16.6508 20.3251C16.6508 22.3529 18.2969 24.0001 20.3249 24.0001C21.0723 24.0001 21.7673 23.776 22.3477 23.3922L22.9897 24.0343L24.0504 22.9732ZM18.9632 17.5674C19.3869 17.3585 19.8523 17.2498 20.3251 17.2498C22.0223 17.2498 23.4008 18.6269 23.4008 20.325C23.4008 20.8977 23.2434 21.4337 22.9702 21.893L19.4884 18.4113L18.9632 17.5674ZM9.67518 23.3999C7.97793 23.3999 6.60124 22.0222 6.60124 20.3249C6.60124 18.6268 7.97793 17.2497 9.67518 17.2497C10.148 17.2497 10.6143 17.3584 11.0379 17.5673L9.69453 19.7252C9.68913 19.7241 9.68163 19.7241 9.67518 19.7241C9.34443 19.7241 9.07608 19.9933 9.07608 20.3248C9.07608 20.6552 9.34451 20.9246 9.67518 20.9246C9.87385 20.9246 10.0596 20.8262 10.1712 20.6618H12.7325C12.5597 22.2199 11.2434 23.3999 9.67518 23.3999ZM10.1917 20.0622L11.5471 17.885C12.2326 18.4105 12.6656 19.2007 12.7391 20.0622H10.1917ZM14.0434 20.0622H13.3411C13.2638 18.9936 12.7251 18.0111 11.8647 17.3724L12.2687 16.7244L14.2337 19.6473C14.1379 19.7679 14.0731 19.9108 14.0434 20.0622ZM15.2685 19.312C15.1812 19.287 15.0911 19.2749 15.0011 19.2749C14.9092 19.2749 14.819 19.2869 14.7317 19.312L12.8403 16.4997H15.4555L16.4746 17.5188L15.2685 19.312ZM20.3251 23.3999C18.6278 23.3999 17.2501 22.0222 17.2501 20.3249C17.2501 19.7578 17.4076 19.2106 17.693 18.7372L21.9136 22.9578C21.4498 23.2384 20.9062 23.3999 20.3251 23.3999Z" fill="white"/><path d="M6.70834 5.63129L5.64769 6.69186L22.9899 24.0341L24.0504 22.9732L6.70834 5.63129Z" fill="#EB0000"/></svg>

<svg class="color-immutable" width="30" height="30" viewBox="0 0 30 30" fill="none" xmlns="http://www.w3.org/2000/svg"><path d="M30 0H0v30h30V0Z" fill="#2D327D"/><path d="M25.5 3c.825 0 1.5.675 1.5 1.5v21c0 .825-.675 1.5-1.5 1.5h-21c-.825 0-1.5-.675-1.5-1.5v-21C3 3.675 3.675 3 4.5 3h21Zm0-.375h-21A1.877 1.877 0 0 0 2.625 4.5v21c0 1.034.841 1.875 1.875 1.875h21a1.877 1.877 0 0 0 1.875-1.875v-21A1.877 1.877 0 0 0 25.5 2.625Z" fill="#fff"/><path d="m13.015 14.795-1.81.634a.374.374 0 0 1-.435-.145l-.407-.604a.302.302 0 0 1 .249-.468h2.304a.3.3 0 0 1 .1.583ZM19.35 14.813h-2.625v-.6h2.626a.3.3 0 0 1 0 .6ZM19.35 15.787h-.375a.3.3 0 0 1 0-.6h.375a.3.3 0 0 1 0 .6Z" fill="#fff"/><path d="m24.05 22.973-.645-.645a3.676 3.676 0 0 0-4.76-5.272l-.72-1.156h-.948L6.708 5.631l-1.06 1.06 9.208 9.209h-2.78l-.72 1.156a3.675 3.675 0 1 0 1.978 3.606h.783a.976.976 0 1 0 1.65-1.015l1.14-1.696.35.35a3.675 3.675 0 0 0 5.09 5.091l.643.642 1.06-1.06Zm-5.087-5.406a3.078 3.078 0 0 1 4.438 2.758c0 .573-.158 1.109-.43 1.568l-3.483-3.482-.525-.844ZM9.675 23.4a3.075 3.075 0 1 1 1.363-5.833l-1.343 2.158h-.02a.6.6 0 1 0 .496.937h2.562A3.077 3.077 0 0 1 9.675 23.4Zm.517-3.338 1.355-2.177a3.072 3.072 0 0 1 1.192 2.177h-2.547Zm3.851 0h-.702a3.68 3.68 0 0 0-1.476-2.69l.404-.648 1.965 2.923a.966.966 0 0 0-.19.415Zm1.226-.75a.971.971 0 0 0-.537 0L12.84 16.5h2.616l1.019 1.019-1.207 1.793Zm5.056 4.088a3.076 3.076 0 0 1-2.632-4.663l4.22 4.22a3.059 3.059 0 0 1-1.588.443Z" fill="#fff"/><path d="m6.708 5.631-1.06 1.06L22.99 24.035l1.06-1.06L6.708 5.63Z" fill="#EB0000"/></svg>
